X: 17
T: Prestes le moy
N: Derived from Jap3017-Prestes_le_moy.krn
C: Jean Japart
%%abc-version 2.0
%%abcx-abcm2ps-target-version 5.9.1 (29 Sep 2008)
%%abc-creator hum2abc beta
%%abcx-conversion-date 2019/02/16 20:40:05
%%abc-edited-by Jesse Rodin
%%abc-edited-by Chris Gage 09-18-2013
%%abcx-initial-encoding-date 2013/10/24/
%%humdrum-veritas 960192924
%%humdrum-veritas-data 186738783
%%linebreak <none>
%%barnumbers 0
L: 1/4
M: 2/1
Q: 1/2=120
%%staves [1 2 3 4]
V: 1 clef=treble
V: 2 clef=treble-8
V: 3 clef=treble-8
V: 4 clef=bass
K: F
[V:1] z8 | 
[V:2] F8 | 
[V:3] z8 | 
[V:4] F,,6B,,2- | 
[V:1] z8 | 
[V:2] G4G4 | 
[V:3] z8 | 
[V:4] B,,4C,4 | 
[V:1] F8 | 
[V:2] F2G2A2d2- | 
[V:3] z8 | 
[V:4] D,4D,4 | 
[V:1] G4G4 | 
[V:2] d2cBc4 | 
[V:3] z8 | 
[V:4] _E,4E,4 | 
[V:1] F8 | 
[V:2] d4c2f2- | 
[V:3] F8 | 
[V:4] D,4F,4 | 
[V:1] z4B4 | 
[V:2] f2ede3d | 
[V:3] G4G4 | 
[V:4] C,4z4 | 
[V:1] A4A2c2- | 
[V:2] f2e2d2c2 | 
[V:3] F8 | 
[V:4] A,4F,2A,2- | 
[V:1] c2BAG4 | 
[V:2] f4z4 | 
[V:3] z4B4 | 
[V:4] A,2G,F,E,2G,2 | 
[V:1] F4F4 | 
[V:2] z4F4 | 
[V:3] A6B2 | 
[V:4] D,2F,3E,D,2 | 
[V:1] E2G4FE | 
[V:2] G4E4 | 
[V:3] c4A4 | 
[V:4] C,4C,4 | 
[V:1] D4C4 | 
[V:2] F4z4 | 
[V:3] F6E2 | 
[V:4] D,4A,,4 | 
[V:1] z8 | 
[V:2] f4e2g2 | 
[V:3] D4C4 | 
[V:4] B,,4C,4 | 
[V:1] F8 | 
[V:2] f2d3cBA | 
[V:3] z8 | 
[V:4] D,6D,2 | 
[V:1] G4G4 | 
[V:2] G2B4c2 | 
[V:3] z8 | 
[V:4] E,4E,4 | 
[V:1] F8 | 
[V:2] A2d3ef2- | 
[V:3] F8 | 
[V:4] F,4D,4 | 
[V:1] z4B4 | 
[V:2] f2ede4 | 
[V:3] G4G4 | 
[V:4] C,4z4 | 
[V:1] A2c3BA2 | 
[V:2] f2c4d2 | 
[V:3] F8 | 
[V:4] F,2A,3G,F,2 | 
[V:1] G2B3AG2 | 
[V:2] _e8 | 
[V:3] z4B4 | 
[V:4] _E,2G,3F,E,2 | 
[V:1] A2F4G2- | 
[V:2] c2d2f2_e2 | 
[V:3] A4B4 | 
[V:4] F,2D,4_E,2- | 
[V:1] GFEDE4 | 
[V:2] c8 | 
[V:3] G8 | 
[V:4] E,D,C,B,,C,4 | 
[V:1] F4z4 | 
[V:2] z4f4 | 
[V:3] F8 | 
[V:4] F,,4F,4- | 
[V:1] A6A2 | 
[V:2] f3ec2A2- | 
[V:3] c4c2c2 | 
[V:4] F,4F,4 | 
[V:1] A4A4 | 
[V:2] ABc2A2F2 | 
[V:3] c2c2c2c2 | 
[V:4] F,4F,4 | 
[V:1] A4G4 | 
[V:2] c2F2G4 | 
[V:3] c4c2c2 | 
[V:4] F,4_E,4 | 
[V:1] F3GA2B2- | 
[V:2] A4z4 | 
[V:3] d4d4 | 
[V:4] D,3E,F,2G,2- | 
[V:1] B2A4d2- | 
[V:2] z8 | 
[V:3] d4d2d2 | 
[V:4] G,2D,2F,2B,2- | 
[V:1] dcBAB3A | 
[V:2] z8 | 
[V:3] d4d4 | 
[V:4] B,A,G,F,G,3F, | 
[V:1] c2A4B2- | 
[V:2] e2f4d2 | 
[V:3] c4d4 | 
[V:4] A,2F,4G,2- | 
[V:1] BAGFG3F | 
[V:2] _e8 | 
[V:3] B8 | 
[V:4] G,F,_E,D,E,4 | 
[V:1] A4z4 | 
[V:2] c2d3cc2- | 
[V:3] A8 | 
[V:4] F,4E,4 | 
[V:1] F4G2G2 | 
[V:2] c2=B2c4 | 
[V:3] z8 | 
[V:4] D,4C,4 | 
[V:1] F2B2B4 | 
[V:2] c2f4e2 | 
[V:3] F4G2G2 | 
[V:4] F,,4z4 | 
[V:1] A2A2G4 | 
[V:2] f2d4e2 | 
[V:3] F4B4 | 
[V:4] F,4G,2E,2 | 
[V:1] F6E2 | 
[V:2] c8 | 
[V:3] A2A2G4 | 
[V:4] F,4C,4 | 
[V:1] D4C4 | 
[V:2] A4A2c2- | 
[V:3] F6E2 | 
[V:4] D,4A,,4 | 
[V:1] F4E2E2 | 
[V:2] c2B2G4 | 
[V:3] D4C4 | 
[V:4] B,,4C,4 | 
[V:1] F4B4 | 
[V:2] F4z4 | 
[V:3] F4G2E2 | 
[V:4] D,2B,,3A,,G,,2 | 
[V:1] A2d3cd2 | 
[V:2] f4d2f2- | 
[V:3] F4B4 | 
[V:4] F,,2B,,3A,,B,,2 | 
[V:1] c2A2B2A2- | 
[V:2] fec2f2e2 | 
[V:3] A2c2d2c2- | 
[V:4] F,,4z4 | 
[V:1] AGF4E2 | 
[V:2] f2c4c2 | 
[V:3] cBA2G4 | 
[V:4] F,4C,4 | 
[V:1] F4z4 | 
[V:2] A6B2 | 
[V:3] F8 | 
[V:4] F,,8 | 
[V:1] F4D4 | 
[V:2] c4d4 | 
[V:3] F4F4 | 
[V:4] F,,4B,,4- | 
[V:1] F4D4 | 
[V:2] d4d2d2- | 
[V:3] B4B4 | 
[V:4] B,,4B,,4 | 
[V:1] F4G4 | 
[V:2] d2d4B2 | 
[V:3] B4B4 | 
[V:4] B,,4B,,4 | 
[V:1] A4z4 | 
[V:2] c4A2c2- | 
[V:3] A8 | 
[V:4] F,,4F,,2A,,2- | 
[V:1] c4c4 | 
[V:2] c2d2e4 | 
[V:3] A4A4 | 
[V:4] A,,2B,,2C,4 | 
[V:1] A6G2 | 
[V:2] f2d3cB2 | 
[V:3] F4D4 | 
[V:4] D,8 | 
[V:1] E2G4FE | 
[V:2] c4d4 | 
[V:3] E4F4 | 
[V:4] C,4B,,4- | 
[V:1] D4C4 | 
[V:2] z8 | 
[V:3] G4z4 | 
[V:4] B,,4C,4 | 
[V:1] z2F4D2- | 
[V:2] f4d4 | 
[V:3] F4F4 | 
[V:4] F,,4B,,4- | 
[V:1] D2F4B2- | 
[V:2] f4d4 | 
[V:3] B4B4 | 
[V:4] B,,4B,,4 | 
[V:1] BAGFG4 | 
[V:2] f4d4 | 
[V:3] B4B4 | 
[V:4] B,,2B,,4B,,2 | 
[V:1] A4z2c2 | 
[V:2] c2d2e2c2- | 
[V:3] A8 | 
[V:4] F,,8 | 
[V:1] c4B4 | 
[V:2] c2f4e2 | 
[V:3] A4G4 | 
[V:4] F,4G,4 | 
[V:1] A2A3GF2- | 
[V:2] f2d4B2 | 
[V:3] F4F4 | 
[V:4] D,8 | 
[V:1] F2EDE4 | 
[V:2] c8 | 
[V:3] G4G4 | 
[V:4] C,8 | 
[V:1] F4c4 | 
[V:2] A4F4 | 
[V:3] F8 | 
[V:4] z2A,4F,2- | 
[V:1] c4B4 | 
[V:2] z2c2d2e2 | 
[V:3] z8 | 
[V:4] F,2A,2G,4 | 
[V:1] A4G4- | 
[V:2] f4_e4- | 
[V:3] c4c4 | 
[V:4] F,4C,4 | 
[V:1] G2F2F4- | 
[V:2] e2d2c2A2- | 
[V:3] B4A4 | 
[V:4] _E,4F,4 | 
[V:1] F4E4 | 
[V:2] A2B2G4 | 
[V:3] F4G4 | 
[V:4] D,4C,4 | 
[V:1] F4z2c2- | 
[V:2] F8 | 
[V:3] A8 | 
[V:4] z2F,3G,A,2 | 
[V:1] c2c3BAG | 
[V:2] z4A4 | 
[V:3] c4c4 | 
[V:4] F,2A,3G,F,E, | 
[V:1] B3AFGA2- | 
[V:2] d6c2- | 
[V:3] B4A4 | 
[V:4] G,3F,D,E,F,2- | 
[V:1] AGF4E2 | 
[V:2] c2A2G4 | 
[V:3] F4G4 | 
[V:4] F,E,F,2C,4 | 
[V:1] F4z4 | 
[V:2] F4z4 | 
[V:3] A8 | 
[V:4] F,,8 | 
[V:1] (3:2:2F8D4 | 
[V:2] (3:2:2A8A4 | 
[V:3] (3:2:2F8F4 | 
[V:4] z8 | 
[V:1] (3:2:2F8D4 | 
[V:2] d8 | 
[V:3] (3:2:2B8B4 | 
[V:4] B,,8 | 
[V:1] (3F4G4F4 | 
[V:2] d8 | 
[V:3] (3:2:2B8B4 | 
[V:4] B,,8 | 
[V:1] A4z4 | 
[V:2] c8 | 
[V:3] A8 | 
[V:4] F,,8 | 
[V:1] (3:2:2c8c4 | 
[V:2] (3:2:2c8A4- | 
[V:3] (3:2:2A8A4 | 
[V:4] A,,8 | 
[V:1] (3A6G2F4 | 
[V:2] (3:2:2A4B8 | 
[V:3] (3:2:2F8D4 | 
[V:4] D,8 | 
[V:1] (3:2:4E4E2G4F2 | 
[V:2] c8 | 
[V:3] (3:2:2E8F4 | 
[V:4] C,8 | 
[V:1] (3:2:2D8C4 | 
[V:2] z8 | 
[V:3] (3:2:2G8z4 | 
[V:4] (3:2:2B,,8C,4 | 
[V:1] (3:2:2F8D4 | 
[V:2] (3d6e2f4 | 
[V:3] (3:2:2F8F4 | 
[V:4] D,8 | 
[V:1] (3:2:2F8D4 | 
[V:2] (3d6e2f4 | 
[V:3] (3:2:2B8B4 | 
[V:4] B,,8 | 
[V:1] (3F4G4F4 | 
[V:2] (3d6c2d4 | 
[V:3] (3:2:2B8B4 | 
[V:4] B,,8 | 
[V:1] A4z4 | 
[V:2] c8 | 
[V:3] A8 | 
[V:4] F,,8 | 
[V:1] (3:2:2c8B4 | 
[V:2] (3:2:4c4f4d2e2 | 
[V:3] (3:2:2A8B4 | 
[V:4] (3:2:2F,8G,4 | 
[V:1] (3A4G6F2 | 
[V:2] (3f6e4d2 | 
[V:3] (3:2:2c8B4 | 
[V:4] (3F,4C,4E,4 | 
[V:1] (3:2:2F8E4 | 
[V:2] (3:2:2c8c4 | 
[V:3] (3:2:2A4G8 | 
[V:4] (3:2:2F,4C,8 | 
[V:1] F8 |]  
[V:2] c8 |]  
[V:3] F8 |]  
[V:4] F,,8 |]  



